src/images/engine.svg

<svg width="30" height="23" viewBox="0 0 30 23" fill="none" xmlns="http://www.w3.org/2000/svg">
<path d="M29.0866 8.31199C28.915 8.31199 28.7431 8.24623 28.6123 8.11521L21.8109 1.31421C21.5492 1.05217 21.5492 0.627511 21.8109 0.365477C22.073 0.103597 22.4978 0.103597 22.7598 0.365477L29.5602 7.16614C29.8222 7.42802 29.8222 7.85268 29.5602 8.11471C29.4302 8.24571 29.2602 8.31171 29.0869 8.31171" fill="#48494D"/>
<path d="M27.4738 9.92477C27.3022 9.92477 27.1304 9.85918 26.9995 9.72816L20.1988 2.92749C19.9368 2.66545 19.9368 2.24079 20.1988 1.97876C20.4609 1.71672 20.8857 1.71671 21.1477 1.97876L27.9481 8.77942C28.2101 9.04147 28.2101 9.46612 27.9481 9.72816C27.8171 9.85916 27.6454 9.92482 27.4737 9.92482" fill="#48494D"/>
<path d="M25.9287 11.4701C25.7568 11.4701 25.5852 11.4046 25.4541 11.2734L18.6537 4.47278C18.3917 4.21074 18.3917 3.78608 18.6537 3.52405C18.9158 3.26217 19.3403 3.26217 19.6023 3.52405L26.403 10.3247C26.665 10.5868 26.665 11.0115 26.403 11.2733C26.2716 11.4046 26.1003 11.4699 25.9286 11.4699" fill="#48494D"/>
<path d="M17.5466 9.25638C17.3748 9.25638 17.2032 9.19063 17.0723 9.05961C16.8103 8.79773 16.8103 8.37307 17.0723 8.11104L19.9499 5.23328C20.212 4.9714 20.6365 4.9714 20.8985 5.23328C21.1605 5.49532 21.1605 5.91998 20.8985 6.18201L18.0205 9.05967C17.8898 9.19067 17.7178 9.25634 17.5465 9.25634" fill="#48494D"/>
<path d="M21.3414 13.0514C21.1695 13.0514 20.998 12.986 20.8671 12.8548C20.6051 12.5927 20.6051 12.1682 20.8671 11.9062L23.7447 9.02844C24.0067 8.76656 24.4315 8.76656 24.6936 9.02844C24.9556 9.29049 24.9556 9.71514 24.6936 9.97718L21.8157 12.8548C21.685 12.9861 21.513 13.0514 21.3413 13.0514" fill="#48494D"/>
<path d="M27.1684 4.6347C26.6505 5.15277 25.8106 5.15277 25.2927 4.6347C24.7745 4.11663 24.7745 3.27697 25.2927 2.75903C25.8106 2.24097 26.6504 2.24097 27.1684 2.75903C27.6864 3.27703 27.6864 4.1167 27.1684 4.6347Z" fill="#48494D"/>
<path d="M0.912909 8.3044C0.741195 8.3044 0.569475 8.23865 0.438475 8.10763C0.176595 7.84575 0.176595 7.4211 0.438475 7.15906L7.23914 0.358398C7.50135 0.0963544 7.92614 0.0963544 8.18804 0.358398C8.45009 0.620278 8.45009 1.04493 8.18804 1.30696L1.38704 8.10763C1.25604 8.23829 1.08438 8.3043 0.912709 8.3043" fill="#48494D"/>
<path d="M2.52587 9.91708C2.35416 9.91708 2.18261 9.85132 2.05157 9.7203C1.78953 9.45842 1.78953 9.0336 2.05157 8.77173L8.85224 1.97107C9.11428 1.70919 9.53894 1.70919 9.80098 1.97107C10.0629 2.23311 10.0629 2.65777 9.80098 2.9198L3.00031 9.72047C2.86931 9.85147 2.69764 9.91713 2.52597 9.91713" fill="#48494D"/>
<path d="M4.07125 11.4627C3.8997 11.4627 3.72799 11.397 3.59695 11.2661C3.33491 11.0041 3.33491 10.5794 3.59695 10.3174L10.3976 3.51672C10.6597 3.25468 11.0843 3.25468 11.3464 3.51672C11.6084 3.77877 11.6084 4.20342 11.3464 4.46529L4.54602 11.266C4.41502 11.3966 4.24302 11.4626 4.07135 11.4626" fill="#48494D"/>
<path d="M8.65815 13.0441C8.48644 13.0441 8.31472 12.9783 8.18372 12.8475L5.30579 9.96968C5.04374 9.7078 5.04374 9.28298 5.30579 9.02112C5.56816 8.75907 5.99278 8.75907 6.25485 9.02112L9.13245 11.8989C9.39449 12.1606 9.39449 12.5857 9.13245 12.8475C9.00145 12.9785 8.82978 13.0441 8.65812 13.0441" fill="#48494D"/>
<path d="M12.4535 9.24878C12.2818 9.24878 12.1101 9.18318 11.9791 9.05216L9.10117 6.1744C8.83912 5.91252 8.83912 5.4877 9.10117 5.22583C9.36354 4.96379 9.78816 4.96379 10.0502 5.22583L12.9278 8.10343C13.1899 8.36547 13.1899 8.79013 12.9278 9.05216C12.7968 9.18316 12.6248 9.24883 12.4535 9.24883" fill="#48494D"/>
<path d="M4.70761 2.75141C5.22551 3.26931 5.22551 4.10901 4.70761 4.62708C4.18954 5.14498 3.34987 5.14498 2.83194 4.62708C2.31387 4.10901 2.31387 3.26935 2.83194 2.75141C3.34961 2.23342 4.18927 2.23342 4.70761 2.75141Z" fill="#48494D"/>
<path d="M15.004 22.418C13.0839 22.418 11.1637 21.6872 9.70199 20.2253C6.77866 17.3018 6.77866 12.545 9.70199 9.62134C12.6257 6.69734 17.3827 6.69734 20.306 9.62134C23.2298 12.5448 23.2298 17.3017 20.306 20.2253C18.844 21.6873 16.924 22.418 15.004 22.418V22.418ZM15.004 8.77001C13.4272 8.77001 11.8508 9.36995 10.651 10.5703C8.25059 12.9705 8.25059 16.8763 10.651 19.2766C13.0512 21.677 16.9567 21.677 19.3573 19.2766C21.7577 16.8766 21.7577 12.9706 19.3573 10.5703C18.1573 9.36998 16.58 8.76998 15.004 8.76998V8.77001ZM19.8313 19.751H19.8326H19.8313H19.8313Z" fill="#48494D"/>
<path d="M7.09021 17.5423H5.82051C4.89441 17.5423 4.14081 16.7891 4.14081 15.8626V13.9675C4.14081 13.0414 4.89437 12.2881 5.82051 12.2881H7.09021C8.01647 12.2881 8.76974 13.0414 8.76974 13.9675V15.8626C8.76974 16.789 8.01641 17.5423 7.09007 17.5423L7.09021 17.5423ZM5.82041 13.6296C5.6373 13.6296 5.48267 13.7842 5.48267 13.9675V15.8627C5.48267 16.046 5.6373 16.2003 5.82041 16.2003H7.09011C7.27337 16.2003 7.42801 16.046 7.42801 15.8627V13.9675C7.42801 13.7843 7.27338 13.6296 7.09011 13.6296H5.82044H5.82041Z" fill="#48494D"/>
</svg>

<svg width="30" height="23" fill="none" xmlns="http://www.w3.org/2000/svg"><path d="M29.087 8.312a.669.669 0 0 1-.475-.197l-6.801-6.8a.671.671 0 0 1 .949-.95l6.8 6.801a.67.67 0 0 1-.473 1.146M27.474 9.925A.669.669 0 0 1 27 9.728l-6.801-6.8a.67.67 0 1 1 .949-.95l6.8 6.801a.67.67 0 0 1-.474 1.146M25.929 11.47a.668.668 0 0 1-.475-.197l-6.8-6.8a.67.67 0 0 1 .948-.949l6.801 6.8a.67.67 0 0 1-.474 1.146" fill="#48494D"/><path d="M17.547 9.256a.67.67 0 0 1-.474-1.145l2.877-2.878a.67.67 0 0 1 .948.949L18.02 9.06a.668.668 0 0 1-.473.196M21.341 13.051a.67.67 0 0 1-.474-1.145l2.878-2.878a.671.671 0 0 1 .949.95l-2.878 2.877a.667.667 0 0 1-.475.196M27.168 4.635a1.326 1.326 0 1 1-1.875-1.875 1.326 1.326 0 0 1 1.875 1.875ZM.913 8.304A.67.67 0 0 1 .439 7.16l6.8-6.8a.671.671 0 0 1 .949.948l-6.801 6.8a.67.67 0 0 1-.474.197M2.526 9.917a.67.67 0 0 1-.474-1.145l6.8-6.8a.671.671 0 0 1 .949.948l-6.8 6.8a.669.669 0 0 1-.475.197M4.071 11.463a.67.67 0 0 1-.474-1.146l6.8-6.8a.67.67 0 0 1 .95.948l-6.801 6.801a.671.671 0 0 1-.475.197" fill="#48494D"/><path d="M8.658 13.044a.67.67 0 0 1-.474-.197L5.306 9.97a.67.67 0 1 1 .949-.949L9.132 11.9a.67.67 0 0 1-.474 1.145M12.454 9.249a.669.669 0 0 1-.475-.197L9.101 6.174a.67.67 0 1 1 .95-.948l2.877 2.877a.67.67 0 0 1-.475 1.146M4.708 2.751a1.326 1.326 0 1 1-1.876 1.876 1.326 1.326 0 0 1 1.876-1.876Z" fill="#48494D"/><path d="M15.004 22.418c-1.92 0-3.84-.73-5.302-2.193-2.923-2.923-2.923-7.68 0-10.604 2.924-2.924 7.68-2.924 10.604 0 2.924 2.924 2.924 7.68 0 10.604a7.475 7.475 0 0 1-5.302 2.193Zm0-13.648c-1.577 0-3.153.6-4.353 1.8a6.163 6.163 0 0 0 0 8.707c2.4 2.4 6.306 2.4 8.706 0 2.4-2.4 2.4-6.306 0-8.707a6.137 6.137 0 0 0-4.353-1.8Zm4.827 10.981h.002-.002Z" fill="#48494D"/><path d="M7.09 17.542H5.82c-.926 0-1.68-.753-1.68-1.68v-1.895c0-.926.754-1.679 1.68-1.679h1.27c.926 0 1.68.753 1.68 1.68v1.895c0 .926-.754 1.68-1.68 1.68ZM5.82 13.63a.342.342 0 0 0-.337.337v1.896c0 .183.154.337.337.337h1.27a.342.342 0 0 0 .338-.337v-1.896a.342.342 0 0 0-.338-.337H5.82Z" fill="#48494D"/></svg>
